X:1
T:Abendlied
T:Franz Commer
T:Friedrich Ruperti
T:Abendlied
T:Op. 22, Nr. 4
T:CPDL - Creative Commons Attribution Non Commercial 3.0
T:CPDL - Creative Commons Attribution Non Commercial 3.0
C:Franz Commer
Z:Friedrich Ruperti
Z:CPDL - Creative Commons Attribution Non Commercial 3.0
%%score [ ( 1 2 ) ( 3 4 ) ]
L:1/8
Q:1/4=80
M:4/4
K:C
V:1 treble-8 nm="Tenor"
V:2 treble-8 
V:3 bass nm="Bass"
V:4 bass 
V:1
"^Moderato""^dolce" GGc | e3 e dded | c2 z2 z c!<(!dc!<)! | f3 f fedc | d2 z2 z2 d2 | %5
w: 1.~So still und|schwei- gend liegt die Nacht um|mich, kein Lüft- chen|regt in Flur und Hai- ne|sich, kein|
w: 2.~Ü- ber den|Was- sern steht ein Stern so|mild und spie- gelt|in der Flut sein schö- nes|Bild; die|
w: 3.~So wun- der-|bar er- greift in Lust und|Scherz dies Zau- ber-|spiel der Nacht mein gan- zes|Herz. Ich|
!mf! ^d3 d e3 e | ^fe^dB g2 z g |!<(! g3 g!<)!!>(! g3 d!>)! | edcA G2 z"^dolce" G | d3 d c3 c | %10
w: Sang der Vö- gel|tönt im wei- ten Raum, kein|lei- ses Blätt- chen|flüs- tert auf dem Baum, und|Wog‘ und Flut, um-|
w: Wo- ge, wie durch-|bebt von sü- ßer Lust, trägt|ihn so hei- ter|auf der stil- len Brust, und|hold in eins ver-|
w: sin- ne, was so|ah- nend zu mir spricht, da|wird es mir im|In- nern freu- dig Licht; ruht|nicht in mei- nem|
 fffe d2 z d | e3 c A3 d | ccdG e2 z e | g3 f ecAd | (!turn!c2 e>)d c |] %15
w: hüllt von Dun- kel, liegt so|ru- hig wie im|tie- fen Schlaf ge- wiegt, so|ru- hig wie im tie- fen|Schlaf _ ge- wiegt.|
w: schmol- zen blickt von fern zu|mir her- ü- ber|freund- lich Flut und Stern, zu|mir her- ü- ber freund- lich|Flut _ und Stern.|
w: Bu- sen, Lust er- füllt, so|still und tief, Ge-|lieb- tes- te, dein Bild, so|still und tief, Ge- lieb- tes-|te, _ dein Bild.|
V:2
 GGG | c3 c AABB | c2 x2 x GGG | B3 B ccdc | B2 x2 x2 B2 | B3 B B3 B | BBBB B2 x B | ^c3 c d3 B | %8
 cBAA G2 x G | B3 B c3 c | Bdcc B2 x B | c3 c A3 A | GGBG G2 x c | c3 B ccAA | (G2 B>)B c |] %15
V:3
"^dolce" E,E,E, | G,3 G, ^F,F,=F,F, | E,2 z2 z E,!<(!F,E,!<)! | G,3 G, G,G,G,G, | G,2 z2 z2 G,2 | %5
!mf! A,3 A, G,3 G, | A,G,A,A, G,2 z B, |!<(! ^A,3 A,!<)!!>(! B,3 G,!>)! | %8
 ^F,G,F,F, G,2 z"^dolce" G, | =F,3 F, E,3 E, | D,G,G,G, G,2 z G, | G,3 G, F,3 F, | %12
 E,E,F,F, E,2 z G, | G,3 G, G,G,F,F, | (E,2 F,>)F, E, |] %15
V:4
 C,C,C, | C,3 C, C,C,C,C, | C,2 x2 x C,B,,C, | D,3 D, C,C,E,E, | G,2 x2 x2 G,2 | ^F,3 F, E,3 E, | %6
 ^D,E,^F,F, E,2 x E, | E,3 _E, D,3 D, | D,D,D,D, G,2 x G, | G,,3 G,, G,,3 G,, | %10
 G,,B,,C,E, G,2 x G, | C,3 E, F,3 F,, | G,,G,,G,,G,, C,2 x C, | E,3 D, C,E,F,F,, | %14
 (G,,2 G,,>)G,, C, |] %15

